X:1
T:Title
%%score { 1 | 2 }
L:1/8
M:4/4
K:Bb
V:1 treble nm="Grand Piano"
V:2 bass 
V:1
 z4 z2[Q:1/4=100] [B,D]>[CE] | [DF]2 [DF]2 [EF]2 [EG]2 | [DF]2 [DF]4 [FB]>c | d2 [FB]2 G2 B2 | %4
[M:3/4] F6 |[M:1/4] D>[CE] |[M:4/4] [DF]2 [DF]2 [EF]2 [EG]2 | [DF]2 [DB]4 [Fd]>[Fd] | %8
 [Fc]2 [Fc]2 [=Ec]2 [Ec]2 |[M:3/4] [Fc]6 |[M:1/4] [B,D]>[CE] |[M:4/4] [DF]2 [DF]4 [FB]>c | %12
 d2 d4 [FB]>c | d2 [FB]2 G2 B2 |[M:3/4] F6 |[M:1/4] D>[CE] |[M:4/4] [DF]2 [DF]4 [FB]>[Fc] | %17
 [Fd]2 [Fd]4 [DFB]>[Fd] | [Fc]2 [=EB]2 [CEA]2 [B,EG]2 |[M:3/4] [A,CF]6 | %20
[M:1/4][K:bass] [F,B,D]>[F,CE] |[M:4/4][K:treble] [F,DF]2 [B,DF]4 [B,FB]>c | d2 d4 [Fd]>[_Ad] | %23
 [Ge]2 [Ge]2 [GB]2 [^Fc]2 |[M:3/4] [Fd]6 |[M:1/4] [DB]>[FA] |[M:4/4] [EG]2 [EG]2 [GB]2 [^Fc]2 | %27
 [Fd]2 [Fd]4 [DFB]>[Fd] | d2 c2 B2 A2 |[M:3/4] [DB]6 |] %30
V:2
 z4 z2 [B,,F,]>[B,,F,] | [B,,B,]2 [B,,B,]2 [F,A,]2 [F,A,]2 | %2
 [B,,B,]2 [B,,B,]4 [D,B,]>[K:treble][F,A,F] | [B,F]2[K:bass] [D,B,]2 [E,B,E]2 [G,B,E]2 | %4
[M:3/4] [B,D]6 |[M:1/4] [B,,F,B,]>[B,,F,] |[M:4/4] [B,,B,]2 [B,,B,]2 [F,A,]2 [F,A,]2 | %7
 [B,,B,]2 [B,,F,]4 [B,,B,]>[B,,B,] | [C,A,]2 [C,A,]2 [C,G,]2 [C,B,]2 |[M:3/4] [F,A,]6 | %10
[M:1/4] [B,,F,]>[B,,F,] |[M:4/4] [B,,B,]2 [B,,B,]4 [D,B,]>[K:treble][F,A,F] | %12
 [B,F]2 [B,F]4[K:bass] [D,B,]>[F,A,F] | [B,F]2 [D,B,]2 [E,B,E]2 [G,B,E]2 |[M:3/4] [B,D]6 | %15
[M:1/4] [B,,F,B,]>[B,,F,] |[M:4/4] [B,,B,]2 [B,,B,]4 [D,B,]>[F,A,] | B,2 B,4 B,,>[B,,B,] | %18
 [C,A,]2 [C,G,]2 C,2 C,2 |[M:3/4] F,2 F,>G, F,E, |[M:1/4] D,>C, | %21
[M:4/4] B,,2 B,,4 D,>[K:treble][F,A,F] | [B,F]2 [B,F]4[K:bass] [B,,B,]>[B,,B,] | %23
 [E,B,]2 [E,B,]2 [E,B,]2 [E,B,]2 |[M:3/4] [B,,B,]6 |[M:1/4] [B,,B,]>[D,B,] | %26
[M:4/4] [E,B,]2 [E,B,]2 [E,B,]2 [E,B,]2 | [B,,B,]2 [B,,B,]4 B,,>[B,,B,] | %28
 [F,B,F]2 [F,EF]2 [F,DF]2 [F,CE]2 |[M:3/4] [B,,B,]6 |] %30

